img/eximchain/token-logo-2.svg

<svg fill="none" height="135" viewBox="0 0 135 135" width="135" xmlns="http://www.w3.org/2000/svg" xmlns:xlink="http://www.w3.org/1999/xlink"><clipPath id="a"><path d="m0 0h135v135h-135z"/></clipPath><g clip-path="url(#a)"><path d="m135 .00488281h-135v135.00011719h135z" fill="#267edc"/><path clip-rule="evenodd" d="m52.0545 63.7358 3.8673 6.6984 25.8215-14.908.9634.2617-1.7395 11.6374-.2551.9652-17.7561 10.2515.0025.0005-1.7229.9946.0027.0045-10.9664 6.3315-.0026-.0046-16.6555 9.6161-.9634-.2617 1.7396-11.6375.2551-.9652 8.6462-4.9918-.0025-.0005 1.6667-.9622-9.1435-15.8371.2575-.961 48.6967-28.1151.9667.2543-1.7815 11.5887-.2404.9511-31.399 18.1282zm.5781 26.3261 7.0968 12.2921.961.258 39.9316-23.0548.273-.9702 1.874-11.6418-.953-.262-35.4354 20.4582-.961-.2575-1.8206-3.1534z" fill="#fff" fill-rule="evenodd"/><g fill="#cfe6ff"><path d="m15.2609 19.355h-5.085l-.1134-.1134v-.9046l.1134-.2255 2.2603-1.808c1.1302-.9046 1.5825-1.469 1.5825-2.4857 0-.7912-.3389-1.4691-1.3556-1.4691s-1.4691.5644-1.4691 1.4691l-.1134.1134h-.9047l-.1134-.1134c0-1.4691.9047-2.4858 2.5992-2.4858 1.8079 0 2.4857 1.2436 2.4857 2.3737 0 1.4691-.6778 2.2603-1.8079 3.165l-1.6959 1.3556v.1134h3.6159l.1134.1134v.7912z"/><path d="m22.6072 19.3557h-.4523l-.2255-.1135-2.3737-3.1649h-.1134l-2.3737 3.1649-.2255.1135h-.4523l-.1135-.1135v-.7912l2.4872-3.1649v-.1121l-2.3737-2.826v-.7912l.1134-.1134h.4523l.2255.1134 2.2603 2.826h.1134l2.2603-2.826.2254-.1134h.4524l.1134.1134v.7912l-2.3737 2.826v.1135l2.4858 3.1649v.7912z"/><path d="m118.051 19.3554h-5.086l-.113-.1134v-.9046l.113-.2255 2.26-1.808c1.13-.9046 1.583-1.469 1.583-2.4857 0-.7913-.339-1.4691-1.356-1.4691s-1.469.5644-1.469 1.4691l-.113.1134h-.905l-.113-.1134c0-1.4691.904-2.4871 2.599-2.4871 1.808 0 2.486 1.2435 2.486 2.3737 0 1.469-.678 2.2602-1.808 3.1649l-1.696 1.3556v.1134h3.616l.113.1134v.7913z"/><path d="m125.396 19.3557h-.452l-.226-.1134-2.373-3.165h-.114l-2.373 3.165-.226.1134h-.452l-.114-.1134v-.7913l2.488-3.1649v-.1121l-2.374-2.826v-.7912l.113-.1134h.453l.225.1134 2.26 2.826h.114l2.26-2.826.226-.1134h.452l.113.1134v.7912l-2.372 2.826v.1135l2.486 3.1649v.7912z"/><path d="m15.2609 123.709h-5.085l-.1134-.114v-.905l.1134-.225 2.2603-1.808c1.1302-.905 1.5825-1.469 1.5825-2.486 0-.791-.3389-1.469-1.3556-1.469s-1.4691.565-1.4691 1.469l-.1134.114h-.9047l-.1134-.114c0-1.469.9047-2.485 2.5992-2.485 1.8079 0 2.4857 1.243 2.4857 2.373 0 1.469-.6778 2.261-1.8079 3.165l-1.6959 1.356v.113h3.6159l.1134.114v.791z"/><path d="m22.6072 123.71h-.4523l-.2255-.114-2.3737-3.165h-.1134l-2.3737 3.165-.2255.114h-.4523l-.1135-.114v-.791l2.4872-3.165v-.113l-2.3737-2.826v-.792l.1134-.113h.4523l.2255.113 2.2603 2.826h.1134l2.2603-2.826.2254-.113h.4524l.1134.113v.792l-2.3737 2.826v.113l2.4858 3.165v.791z"/><path d="m118.051 123.709h-5.086l-.113-.114v-.905l.113-.225 2.26-1.808c1.13-.905 1.583-1.469 1.583-2.486 0-.791-.339-1.469-1.356-1.469s-1.469.565-1.469 1.469l-.113.114h-.905l-.113-.114c0-1.469.904-2.485 2.599-2.485 1.808 0 2.486 1.243 2.486 2.373 0 1.469-.678 2.261-1.808 3.165l-1.696 1.356v.113h3.616l.113.114v.791z"/><path d="m125.396 123.71h-.452l-.226-.114-2.373-3.165h-.114l-2.373 3.165-.226.114h-.452l-.114-.114v-.791l2.488-3.165v-.113l-2.374-2.826v-.792l.113-.113h.453l.225.113 2.26 2.826h.114l2.26-2.826.226-.113h.452l.113.113v.792l-2.373 2.826v.113l2.485 3.165v.791z"/><path clip-rule="evenodd" d="m.0253906 31.6927c0-.1409.1142524-.2552.2551904-.2552h134.739419c.141 0 .255.1143.255.2552s-.114.2552-.255.2552h-134.739419c-.140938 0-.2551904-.1143-.2551904-.2552z" fill-rule="evenodd"/><path clip-rule="evenodd" d="m32.2591-.25c.141 0 .2552.114252.2552.25519001v134.73980999c0 .141-.1142.255-.2552.255-.1409 0-.2552-.114-.2552-.255v-134.73980999c0-.14093801.1143-.25519001.2552-.25519001z" fill-rule="evenodd"/><path clip-rule="evenodd" d="m103.216-.25c.141 0 .255.114252.255.25519001v134.73980999c0 .141-.114.255-.255.255s-.255-.114-.255-.255v-134.73980999c0-.14093801.114-.25519001.255-.25519001z" fill-rule="evenodd"/><path clip-rule="evenodd" d="m.0253906 103.112c0-.141.1142524-.256.2551904-.256h134.739419c.141 0 .255.115.255.256s-.114.255-.255.255h-134.739419c-.140938 0-.2551904-.114-.2551904-.255z" fill-rule="evenodd"/></g></g></svg>

<svg width="135" height="135" viewBox="0 0 135 135" fill="none" xmlns="http://www.w3.org/2000/svg">
<g clip-path="url(#clip0)">
<path d="M135 0.00488281H0V135.005H135V0.00488281Z" fill="#267EDC"/>
<path fill-rule="evenodd" clip-rule="evenodd" d="M52.0545 63.7358L55.9218 70.4342L81.7433 55.5262L82.7067 55.7879L80.9672 67.4253L80.7121 68.3905L62.956 78.642L62.9585 78.6425L61.2356 79.6371L61.2383 79.6416L50.2719 85.9731L50.2693 85.9685L33.6138 95.5846L32.6504 95.3229L34.39 83.6854L34.6451 82.7202L43.2913 77.7284L43.2888 77.7279L44.9555 76.7657L35.812 60.9286L36.0695 59.9676L84.7662 31.8525L85.7329 32.1068L83.9514 43.6955L83.711 44.6466L52.312 62.7748L52.0545 63.7358ZM52.6326 90.0619L59.7294 102.354L60.6904 102.612L100.622 79.5572L100.895 78.587L102.769 66.9452L101.816 66.6832L66.3806 87.1414L65.4196 86.8839L63.599 83.7305L52.6326 90.0619Z" fill="white"/>
<path d="M15.2609 19.355H10.1759L10.0625 19.2416V18.337L10.1759 18.1115L12.4362 16.3035C13.5664 15.3989 14.0187 14.8345 14.0187 13.8178C14.0187 13.0266 13.6798 12.3487 12.6631 12.3487C11.6464 12.3487 11.194 12.9131 11.194 13.8178L11.0806 13.9312H10.1759L10.0625 13.8178C10.0625 12.3487 10.9672 11.332 12.6617 11.332C14.4696 11.332 15.1474 12.5756 15.1474 13.7057C15.1474 15.1748 14.4696 15.966 13.3395 16.8707L11.6436 18.2263V18.3397H15.2595L15.3729 18.4531V19.2443L15.2609 19.355Z" fill="#CFE6FF"/>
<path d="M22.6072 19.3557H22.1549L21.9294 19.2422L19.5557 16.0773H19.4423L17.0686 19.2422L16.8431 19.3557H16.3908L16.2773 19.2422V18.451L18.7645 15.2861V15.174L16.3908 12.348V11.5568L16.5042 11.4434H16.9565L17.182 11.5568L19.4423 14.3828H19.5557L21.816 11.5568L22.0414 11.4434H22.4938L22.6072 11.5568V12.348L20.2335 15.174V15.2875L22.7193 18.4524V19.2436L22.6072 19.3557Z" fill="#CFE6FF"/>
<path d="M118.051 19.3554H112.965L112.852 19.242V18.3374L112.965 18.1119L115.225 16.3039C116.355 15.3993 116.808 14.8349 116.808 13.8182C116.808 13.0269 116.469 12.3491 115.452 12.3491C114.435 12.3491 113.983 12.9135 113.983 13.8182L113.87 13.9316H112.965L112.852 13.8182C112.852 12.3491 113.756 11.3311 115.451 11.3311C117.259 11.3311 117.937 12.5746 117.937 13.7048C117.937 15.1738 117.259 15.965 116.129 16.8697L114.433 18.2253V18.3387H118.049L118.162 18.4521V19.2434L118.051 19.3554Z" fill="#CFE6FF"/>
<path d="M125.396 19.3557H124.944L124.718 19.2423L122.345 16.0773H122.231L119.858 19.2423L119.632 19.3557H119.18L119.066 19.2423V18.451L121.554 15.2861V15.174L119.18 12.348V11.5568L119.293 11.4434H119.746L119.971 11.5568L122.231 14.3828H122.345L124.605 11.5568L124.831 11.4434H125.283L125.396 11.5568V12.348L123.024 15.174V15.2875L125.51 18.4524V19.2436L125.396 19.3557Z" fill="#CFE6FF"/>
<path d="M15.2609 123.709H10.1759L10.0625 123.595V122.69L10.1759 122.465L12.4362 120.657C13.5664 119.752 14.0187 119.188 14.0187 118.171C14.0187 117.38 13.6798 116.702 12.6631 116.702C11.6464 116.702 11.194 117.267 11.194 118.171L11.0806 118.285H10.1759L10.0625 118.171C10.0625 116.702 10.9672 115.686 12.6617 115.686C14.4696 115.686 15.1474 116.929 15.1474 118.059C15.1474 119.528 14.4696 120.32 13.3395 121.224L11.6436 122.58V122.693H15.2595L15.3729 122.807V123.598L15.2609 123.709Z" fill="#CFE6FF"/>
<path d="M22.6072 123.71H22.1549L21.9294 123.596L19.5557 120.431H19.4423L17.0686 123.596L16.8431 123.71H16.3908L16.2773 123.596V122.805L18.7645 119.64V119.527L16.3908 116.701V115.909L16.5042 115.796H16.9565L17.182 115.909L19.4423 118.735H19.5557L21.816 115.909L22.0414 115.796H22.4938L22.6072 115.909V116.701L20.2335 119.527V119.64L22.7193 122.805V123.596L22.6072 123.71Z" fill="#CFE6FF"/>
<path d="M118.051 123.709H112.965L112.852 123.595V122.69L112.965 122.465L115.225 120.657C116.355 119.752 116.808 119.188 116.808 118.171C116.808 117.38 116.469 116.702 115.452 116.702C114.435 116.702 113.983 117.267 113.983 118.171L113.87 118.285H112.965L112.852 118.171C112.852 116.702 113.756 115.686 115.451 115.686C117.259 115.686 117.937 116.929 117.937 118.059C117.937 119.528 117.259 120.32 116.129 121.224L114.433 122.58V122.693H118.049L118.162 122.807V123.598L118.051 123.709Z" fill="#CFE6FF"/>
<path d="M125.396 123.71H124.944L124.718 123.596L122.345 120.431H122.231L119.858 123.596L119.632 123.71H119.18L119.066 123.596V122.805L121.554 119.64V119.527L119.18 116.701V115.909L119.293 115.796H119.746L119.971 115.909L122.231 118.735H122.345L124.605 115.909L124.831 115.796H125.283L125.396 115.909V116.701L123.023 119.527V119.64L125.508 122.805V123.596L125.396 123.71Z" fill="#CFE6FF"/>
<path fill-rule="evenodd" clip-rule="evenodd" d="M0.0253906 31.6927C0.0253906 31.5518 0.139643 31.4375 0.280581 31.4375H135.02C135.161 31.4375 135.275 31.5518 135.275 31.6927C135.275 31.8336 135.161 31.9479 135.02 31.9479H0.280581C0.139643 31.9479 0.0253906 31.8336 0.0253906 31.6927V31.6927Z" fill="#CFE6FF"/>
<path fill-rule="evenodd" clip-rule="evenodd" d="M32.2591 -0.25C32.4001 -0.25 32.5143 -0.135748 32.5143 0.00519001V134.745C32.5143 134.886 32.4001 135 32.2591 135C32.1182 135 32.0039 134.886 32.0039 134.745V0.00519001C32.0039 -0.135748 32.1182 -0.25 32.2591 -0.25V-0.25Z" fill="#CFE6FF"/>
<path fill-rule="evenodd" clip-rule="evenodd" d="M103.216 -0.25C103.357 -0.25 103.471 -0.135748 103.471 0.00519001V134.745C103.471 134.886 103.357 135 103.216 135C103.075 135 102.961 134.886 102.961 134.745V0.00519001C102.961 -0.135748 103.075 -0.25 103.216 -0.25V-0.25Z" fill="#CFE6FF"/>
<path fill-rule="evenodd" clip-rule="evenodd" d="M0.0253906 103.112C0.0253906 102.971 0.139643 102.856 0.280581 102.856H135.02C135.161 102.856 135.275 102.971 135.275 103.112C135.275 103.253 135.161 103.367 135.02 103.367H0.280581C0.139643 103.367 0.0253906 103.253 0.0253906 103.112V103.112Z" fill="#CFE6FF"/>
</g>
<defs>
<clipPath id="clip0">
<rect width="135" height="135" fill="white"/>
</clipPath>
</defs>
</svg>
